X: 251
T: The Shepherd
B: O'Neill's 251
N: "Moderate"
N: "Collected by J.O'neill"
Z: 1997 by John Chambers <jc@trillian.mit.edu>
M: C
L: 1/8
K:G
B>A \
|G3F E2Bd|edBd e2eg|dcBA G2B2|cBAG A2BA|
|G3F E2Bd|edBd e2f2|gag.f efg.c|B2AG G2||
||d2 \
|g3a g2G2|Bcde edcB|Bdgb bagb|agab a2ga|
|gab3a g2fd|.B.d.f.a g2ef|gag.f efg.c|B2AG G2||
